docs/img/logo-docsearch.svg

<?xml version="1.0" encoding="UTF-8" standalone="no"?>
<svg width="346px" height="59px" viewBox="0 0 346 59" version="1.1" xmlns="http://www.w3.org/2000/svg" xmlns:xlink="http://www.w3.org/1999/xlink" xmlns:sketch="http://www.bohemiancoding.com/sketch/ns">
    <!-- Generator: Sketch 3.4.4 (17249) - http://www.bohemiancoding.com/sketch -->
    <title>logo-docsearch + logo-docsearch copy</title>
    <desc>Created with Sketch.</desc>
    <defs></defs>
    <g id="Page-1" stroke="none" stroke-width="1" fill="none" fill-rule="evenodd" sketch:type="MSPage">
        <g id="DocSearch" sketch:type="MSArtboardGroup" transform="translate(-548.000000, -100.000000)">
            <g id="Header" sketch:type="MSLayerGroup" transform="translate(0.000000, 49.000000)">
                <g id="Logo-+-Tagline" transform="translate(398.000000, 51.000000)" sketch:type="MSShapeGroup">
                    <g id="logo-docsearch-+-logo-docsearch-copy" transform="translate(150.000000, 0.000000)">
                        <path d="M0.27,58 L0.27,1.2 L21.47,1.2 C26.1633568,1.2 30.2699824,1.9466592 33.79,3.44 C37.3100176,4.9333408 40.2566548,6.9599872 42.63,9.52 C45.0033452,12.0800128 46.789994,15.0799828 47.99,18.52 C49.190006,21.9600172 49.79,25.6266472 49.79,29.52 C49.79,33.8400216 49.12334,37.7466492 47.79,41.24 C46.45666,44.7333508 44.5500124,47.7199876 42.07,50.2 C39.5899876,52.6800124 36.6033508,54.5999932 33.11,55.96 C29.6166492,57.3200068 25.736688,58 21.47,58 L0.27,58 Z M36.43,29.52 C36.43,27.0133208 36.09667,24.7333436 35.43,22.68 C34.76333,20.6266564 33.7900064,18.8533408 32.51,17.36 C31.2299936,15.8666592 29.656676,14.720004 27.79,13.92 C25.923324,13.119996 23.8166784,12.72 21.47,12.72 L13.39,12.72 L13.39,46.48 L21.47,46.48 C23.870012,46.48 26.003324,46.0533376 27.87,45.2 C29.736676,44.3466624 31.2966604,43.1600076 32.55,41.64 C33.8033396,40.1199924 34.76333,38.3333436 35.43,36.28 C36.09667,34.2266564 36.43,31.9733456 36.43,29.52 L36.43,29.52 Z M68.49,58.3 C65.956654,58.3 63.656677,57.7833385 61.59,56.75 C59.523323,55.7166615 57.7483408,54.3583417 56.265,52.675 C54.7816593,50.9916583 53.6316708,49.0666775 52.815,46.9 C51.9983293,44.7333225 51.59,42.5000115 51.59,40.2 C51.59,37.866655 52.0149958,35.6166775 52.865,33.45 C53.7150043,31.2833225 54.8983258,29.3750083 56.415,27.725 C57.9316743,26.0749917 59.7316563,24.7583382 61.815,23.775 C63.8983438,22.7916618 66.173321,22.3 68.64,22.3 C71.173346,22.3 73.473323,22.8166615 75.54,23.85 C77.606677,24.8833385 79.3816593,26.2499915 80.865,27.95 C82.3483408,29.6500085 83.489996,31.5833225 84.29,33.75 C85.090004,35.9166775 85.49,38.1166555 85.49,40.35 C85.49,42.683345 85.0650043,44.9333225 84.215,47.1 C83.3649958,49.2666775 82.1900075,51.1749918 80.69,52.825 C79.1899925,54.4750083 77.3983438,55.799995 75.315,56.8 C73.2316563,57.800005 70.956679,58.3 68.49,58.3 L68.49,58.3 Z M59.94,40.3 C59.94,41.6666735 60.1316648,42.9916603 60.515,44.275 C60.8983353,45.5583398 61.4483298,46.699995 62.165,47.7 C62.8816703,48.700005 63.7816613,49.499997 64.865,50.1 C65.9483388,50.700003 67.189993,51 68.59,51 C70.0233405,51 71.273328,50.6833365 72.34,50.05 C73.406672,49.4166635 74.2983298,48.5916718 75.015,47.575 C75.7316703,46.5583282 76.2649983,45.4083397 76.615,44.125 C76.9650018,42.8416602 77.14,41.53334 77.14,40.2 C77.14,38.8333265 76.9483353,37.5083397 76.565,36.225 C76.1816648,34.9416602 75.623337,33.8083382 74.89,32.825 C74.156663,31.8416618 73.256672,31.0583362 72.19,30.475 C71.123328,29.8916637 69.9066735,29.6 68.54,29.6 C67.1066595,29.6 65.856672,29.9083302 64.79,30.525 C63.723328,31.1416698 62.8316703,31.949995 62.115,32.95 C61.3983298,33.950005 60.8566685,35.0916603 60.49,36.375 C60.1233315,37.6583397 59.94,38.96666 59.94,40.3 L59.94,40.3 Z M88.24,39.95 C88.24,37.816656 88.6233295,35.6916773 89.39,33.575 C90.1566705,31.4583228 91.273326,29.566675 92.74,27.9 C94.206674,26.233325 95.9983227,24.8833385 98.115,23.85 C100.231677,22.8166615 102.639986,22.3 105.34,22.3 C108.506682,22.3 111.256655,23.0166595 113.59,24.45 C115.923345,25.8833405 117.656661,27.7499885 118.79,30.05 L112.49,34.45 C112.123331,33.516662 111.656669,32.7416697 111.09,32.125 C110.52333,31.5083303 109.90667,31.0083353 109.24,30.625 C108.57333,30.2416647 107.88167,29.9750007 107.165,29.825 C106.44833,29.6749992 105.773336,29.6 105.14,29.6 C103.673326,29.6 102.406672,29.9166635 101.34,30.55 C100.273328,31.1833365 99.3900035,31.999995 98.69,33 C97.9899965,34.000005 97.4650017,35.133327 97.115,36.4 C96.7649982,37.666673 96.59,38.9499935 96.59,40.25 C96.59,41.650007 96.7983312,42.9999935 97.215,44.3 C97.6316687,45.6000065 98.2149962,46.749995 98.965,47.75 C99.7150037,48.750005 100.623328,49.5416637 101.69,50.125 C102.756672,50.7083363 103.939993,51 105.24,51 C105.90667,51 106.59833,50.9083342 107.315,50.725 C108.03167,50.5416657 108.72333,50.2583353 109.39,49.875 C110.05667,49.4916647 110.656664,48.9916697 111.19,48.375 C111.723336,47.7583303 112.156665,47.0000045 112.49,46.1 L119.24,50.05 C118.706664,51.3500065 117.931672,52.5166615 116.915,53.55 C115.898328,54.5833385 114.740006,55.4499965 113.44,56.15 C112.139993,56.8500035 110.765007,57.3833315 109.315,57.75 C107.864993,58.1166685 106.440007,58.3 105.04,58.3 C102.573321,58.3 100.31501,57.7750052 98.265,56.725 C96.2149897,55.6749947 94.4483407,54.283342 92.965,52.55 C91.4816592,50.816658 90.3233375,48.850011 89.49,46.65 C88.6566625,44.449989 88.24,42.216678 88.24,39.95 L88.24,39.95 Z" id="logo-docsearch" fill="#46AEDA"></path>
                        <path d="M173.29,17.84 C173.076666,17.6266656 172.490005,17.2266696 171.53,16.64 C170.569995,16.0533304 169.370007,15.4400032 167.93,14.8 C166.489993,14.1599968 164.916675,13.6000024 163.21,13.12 C161.503325,12.6399976 159.796675,12.4 158.09,12.4 C155.849989,12.4 154.130006,12.799996 152.93,13.6 C151.729994,14.400004 151.13,15.5733256 151.13,17.12 C151.13,18.0800048 151.396664,18.8799968 151.93,19.52 C152.463336,20.1600032 153.223328,20.7333308 154.21,21.24 C155.196672,21.7466692 156.423326,22.2133312 157.89,22.64 C159.356674,23.0666688 161.04999,23.546664 162.97,24.08 C165.690014,24.8266704 168.143322,25.6399956 170.33,26.52 C172.516678,27.4000044 174.383326,28.4933268 175.93,29.8 C177.476674,31.1066732 178.663329,32.693324 179.49,34.56 C180.316671,36.426676 180.73,38.6666536 180.73,41.28 C180.73,44.480016 180.130006,47.1866556 178.93,49.4 C177.729994,51.6133444 176.143343,53.3999932 174.17,54.76 C172.196657,56.1200068 169.91668,57.1066636 167.33,57.72 C164.74332,58.3333364 162.090014,58.64 159.37,58.64 C157.28999,58.64 155.170011,58.4800016 153.01,58.16 C150.849989,57.8399984 148.73001,57.3733364 146.65,56.76 C144.56999,56.1466636 142.543343,55.4133376 140.57,54.56 C138.596657,53.7066624 136.783342,52.7200056 135.13,51.6 L140.89,40.16 C141.156668,40.426668 141.876661,40.9333296 143.05,41.68 C144.223339,42.4266704 145.663325,43.1733296 147.37,43.92 C149.076675,44.6666704 150.996656,45.3333304 153.13,45.92 C155.263344,46.5066696 157.423322,46.8 159.61,46.8 C164.250023,46.8 166.57,45.3866808 166.57,42.56 C166.57,41.493328 166.223337,40.6133368 165.53,39.92 C164.836663,39.2266632 163.876673,38.6000028 162.65,38.04 C161.423327,37.4799972 159.983342,36.9600024 158.33,36.48 C156.676658,35.9999976 154.863343,35.4666696 152.89,34.88 C150.276654,34.079996 148.01001,33.213338 146.09,32.28 C144.16999,31.346662 142.570006,30.2666728 141.29,29.04 C140.009994,27.8133272 139.063336,26.400008 138.45,24.8 C137.836664,23.199992 137.53,21.333344 137.53,19.2 C137.53,16.2133184 138.089994,13.5733448 139.21,11.28 C140.330006,8.9866552 141.84999,7.0533412 143.77,5.48 C145.69001,3.9066588 147.916654,2.720004 150.45,1.92 C152.983346,1.119996 155.663319,0.72 158.49,0.72 C160.516677,0.72 162.48999,0.9066648 164.41,1.28 C166.33001,1.6533352 168.156658,2.1333304 169.89,2.72 C171.623342,3.3066696 173.263326,3.9733296 174.81,4.72 C176.356674,5.4666704 177.743327,6.2133296 178.97,6.96 L173.29,17.84 Z M209.32,50.8 L209.32,58 L184.37,58 L184.37,22.5 L208.87,22.5 L208.87,29.7 L192.57,29.7 L192.57,36.6 L206.57,36.6 L206.57,43.25 L192.57,43.25 L192.57,50.8 L209.32,50.8 Z M210.92,58 L224.57,22.5 L231.22,22.5 L244.82,58 L236.12,58 L233.37,50.05 L222.32,50.05 L219.62,58 L210.92,58 Z M227.87,31.2 L223.62,44.4 L231.97,44.4 L227.87,31.2 Z M248.07,58 L248.07,22.5 L264.07,22.5 C265.736675,22.5 267.278326,22.8499965 268.695,23.55 C270.111674,24.2500035 271.336662,25.166661 272.37,26.3 C273.403339,27.433339 274.211664,28.7166595 274.795,30.15 C275.378336,31.5833405 275.67,33.033326 275.67,34.5 C275.67,35.6000055 275.536668,36.6583282 275.27,37.675 C275.003332,38.6916717 274.620003,39.6499955 274.12,40.55 C273.619998,41.4500045 273.01167,42.2583298 272.295,42.975 C271.57833,43.6916703 270.770005,44.2999975 269.87,44.8 L278.02,58 L268.77,58 L261.62,46.55 L256.27,46.55 L256.27,58 L248.07,58 Z M256.27,39.4 L263.77,39.4 C264.736671,39.4 265.569996,38.9416712 266.27,38.025 C266.970003,37.1083287 267.32,35.9333405 267.32,34.5 C267.32,33.033326 266.920004,31.866671 266.12,31 C265.319996,30.133329 264.453338,29.7 263.52,29.7 L256.27,29.7 L256.27,39.4 Z M280.02,39.95 C280.02,37.816656 280.403329,35.6916773 281.17,33.575 C281.93667,31.4583228 283.053326,29.566675 284.52,27.9 C285.986674,26.233325 287.778323,24.8833385 289.895,23.85 C292.011677,22.8166615 294.419986,22.3 297.12,22.3 C300.286682,22.3 303.036655,23.0166595 305.37,24.45 C307.703345,25.8833405 309.436661,27.7499885 310.57,30.05 L304.27,34.45 C303.903331,33.516662 303.436669,32.7416697 302.87,32.125 C302.30333,31.5083303 301.68667,31.0083353 301.02,30.625 C300.35333,30.2416647 299.66167,29.9750007 298.945,29.825 C298.22833,29.6749992 297.553336,29.6 296.92,29.6 C295.453326,29.6 294.186672,29.9166635 293.12,30.55 C292.053328,31.1833365 291.170003,31.999995 290.47,33 C289.769996,34.000005 289.245002,35.133327 288.895,36.4 C288.544998,37.666673 288.37,38.9499935 288.37,40.25 C288.37,41.650007 288.578331,42.9999935 288.995,44.3 C289.411669,45.6000065 289.994996,46.749995 290.745,47.75 C291.495004,48.750005 292.403328,49.5416637 293.47,50.125 C294.536672,50.7083363 295.719993,51 297.02,51 C297.68667,51 298.37833,50.9083342 299.095,50.725 C299.81167,50.5416657 300.50333,50.2583353 301.17,49.875 C301.83667,49.4916647 302.436664,48.9916697 302.97,48.375 C303.503336,47.7583303 303.936665,47.0000045 304.27,46.1 L311.02,50.05 C310.486664,51.3500065 309.711672,52.5166615 308.695,53.55 C307.678328,54.5833385 306.520006,55.4499965 305.22,56.15 C303.919993,56.8500035 302.545007,57.3833315 301.095,57.75 C299.644993,58.1166685 298.220007,58.3 296.82,58.3 C294.353321,58.3 292.09501,57.7750052 290.045,56.725 C287.99499,55.6749947 286.228341,54.283342 284.745,52.55 C283.261659,50.816658 282.103338,48.850011 281.27,46.65 C280.436662,44.449989 280.02,42.216678 280.02,39.95 L280.02,39.95 Z M345.77,22.5 L345.77,58 L337.57,58 L337.57,43.45 L323.42,43.45 L323.42,58 L315.22,58 L315.22,22.5 L323.42,22.5 L323.42,36.25 L337.57,36.25 L337.57,22.5 L345.77,22.5 Z" id="logo-docsearch-copy" fill="#FFFFFF"></path>
                    </g>
                </g>
            </g>
        </g>
    </g>
</svg>

<svg width="346" height="59" viewBox="0 0 346 59" xmlns="http://www.w3.org/2000/svg"><title>logo-docsearch + logo-docsearch copy</title><desc>Created with Sketch.</desc><g fill="none" fill-rule="evenodd"><g><g><g><g><path d="M.27 58V1.2h21.2c4.693 0 8.8.747 12.32 2.24 3.52 1.493 6.467 3.52 8.84 6.08s4.16 5.56 5.36 9c1.2 3.44 1.8 7.107 1.8 11 0 4.32-.667 8.227-2 11.72-1.333 3.493-3.24 6.48-5.72 8.96-2.48 2.48-5.467 4.4-8.96 5.76C29.617 57.32 25.737 58 21.47 58H.27zm36.16-28.48c0-2.507-.333-4.787-1-6.84s-1.64-3.827-2.92-5.32c-1.28-1.493-2.853-2.64-4.72-3.44-1.867-.8-3.973-1.2-6.32-1.2h-8.08v33.76h8.08c2.4 0 4.533-.427 6.4-1.28s3.427-2.04 4.68-3.56c1.253-1.52 2.213-3.307 2.88-5.36.667-2.053 1-4.307 1-6.76zM68.49 58.3c-2.533 0-4.833-.517-6.9-1.55s-3.842-2.392-5.325-4.075c-1.483-1.683-2.633-3.608-3.45-5.775-.817-2.167-1.225-4.4-1.225-6.7 0-2.333.425-4.583 1.275-6.75.85-2.167 2.033-4.075 3.55-5.725 1.517-1.65 3.317-2.967 5.4-3.95 2.083-.983 4.358-1.475 6.825-1.475 2.533 0 4.833.517 6.9 1.55s3.842 2.4 5.325 4.1c1.483 1.7 2.625 3.633 3.425 5.8.8 2.167 1.2 4.367 1.2 6.6 0 2.333-.425 4.583-1.275 6.75-.85 2.167-2.025 4.075-3.525 5.725-1.5 1.65-3.292 2.975-5.375 3.975s-4.358 1.5-6.825 1.5zm-8.55-18c0 1.367.192 2.692.575 3.975.383 1.283.933 2.425 1.65 3.425.717 1 1.617 1.8 2.7 2.4 1.083.6 2.325.9 3.725.9 1.433 0 2.683-.317 3.75-.95 1.067-.633 1.958-1.458 2.675-2.475.717-1.017 1.25-2.167 1.6-3.45.35-1.283.525-2.592.525-3.925 0-1.367-.192-2.692-.575-3.975-.383-1.283-.942-2.417-1.675-3.4-.733-.983-1.633-1.767-2.7-2.35-1.067-.583-2.283-.875-3.65-.875-1.433 0-2.683.308-3.75.925-1.067.617-1.958 1.425-2.675 2.425-.717 1-1.258 2.142-1.625 3.425s-.55 2.592-.55 3.925zm28.3-.35c0-2.133.383-4.258 1.15-6.375.767-2.117 1.883-4.008 3.35-5.675 1.467-1.667 3.258-3.017 5.375-4.05s4.525-1.55 7.225-1.55c3.167 0 5.917.717 8.25 2.15 2.333 1.433 4.067 3.3 5.2 5.6l-6.3 4.4c-.367-.933-.833-1.708-1.4-2.325-.567-.617-1.183-1.117-1.85-1.5s-1.358-.65-2.075-.8c-.717-.15-1.392-.225-2.025-.225-1.467 0-2.733.317-3.8.95-1.067.633-1.95 1.45-2.65 2.45-.7 1-1.225 2.133-1.575 3.4-.35 1.267-.525 2.55-.525 3.85 0 1.4.208 2.75.625 4.05.417 1.3 1 2.45 1.75 3.45s1.658 1.792 2.725 2.375c1.067.583 2.25.875 3.55.875.667 0 1.358-.092 2.075-.275.717-.183 1.408-.467 2.075-.85.667-.383 1.267-.883 1.8-1.5.533-.617.967-1.375 1.3-2.275l6.75 3.95c-.533 1.3-1.308 2.467-2.325 3.5-1.017 1.033-2.175 1.9-3.475 2.6-1.3.7-2.675 1.233-4.125 1.6-1.45.367-2.875.55-4.275.55-2.467 0-4.725-.525-6.775-1.575-2.05-1.05-3.817-2.442-5.3-4.175-1.483-1.733-2.642-3.7-3.475-5.9-.833-2.2-1.25-4.433-1.25-6.7z" fill="#46AEDA"/><path d="M173.29 17.84c-.213-.213-.8-.613-1.76-1.2s-2.16-1.2-3.6-1.84c-1.44-.64-3.013-1.2-4.72-1.68-1.707-.48-3.413-.72-5.12-.72-2.24 0-3.96.4-5.16 1.2-1.2.8-1.8 1.973-1.8 3.52 0 .96.267 1.76.8 2.4.533.64 1.293 1.213 2.28 1.72.987.507 2.213.973 3.68 1.4 1.467.427 3.16.907 5.08 1.44 2.72.747 5.173 1.56 7.36 2.44 2.187.88 4.053 1.973 5.6 3.28 1.547 1.307 2.733 2.893 3.56 4.76s1.24 4.107 1.24 6.72c0 3.2-.6 5.907-1.8 8.12-1.2 2.213-2.787 4-4.76 5.36-1.973 1.36-4.253 2.347-6.84 2.96-2.587.613-5.24.92-7.96.92-2.08 0-4.2-.16-6.36-.48-2.16-.32-4.28-.787-6.36-1.4-2.08-.613-4.107-1.347-6.08-2.2-1.973-.853-3.787-1.84-5.44-2.96l5.76-11.44c.267.267.987.773 2.16 1.52s2.613 1.493 4.32 2.24c1.707.747 3.627 1.413 5.76 2s4.293.88 6.48.88c4.64 0 6.96-1.413 6.96-4.24 0-1.067-.347-1.947-1.04-2.64-.693-.693-1.653-1.32-2.88-1.88-1.227-.56-2.667-1.08-4.32-1.56-1.653-.48-3.467-1.013-5.44-1.6-2.613-.8-4.88-1.667-6.8-2.6s-3.52-2.013-4.8-3.24c-1.28-1.227-2.227-2.64-2.84-4.24s-.92-3.467-.92-5.6c0-2.987.56-5.627 1.68-7.92 1.12-2.293 2.64-4.227 4.56-5.8 1.92-1.573 4.147-2.76 6.68-3.56 2.533-.8 5.213-1.2 8.04-1.2 2.027 0 4 .187 5.92.56 1.92.373 3.747.853 5.48 1.44 1.733.587 3.373 1.253 4.92 2 1.547.747 2.933 1.493 4.16 2.24l-5.68 10.88zm36.03 32.96V58h-24.95V22.5h24.5v7.2h-16.3v6.9h14v6.65h-14v7.55h16.75zm1.6 7.2l13.65-35.5h6.65l13.6 35.5h-8.7l-2.75-7.95h-11.05l-2.7 7.95h-8.7zm16.95-26.8l-4.25 13.2h8.35l-4.1-13.2zm20.2 26.8V22.5h16c1.667 0 3.208.35 4.625 1.05 1.417.7 2.642 1.617 3.675 2.75s1.842 2.417 2.425 3.85c.583 1.433.875 2.883.875 4.35 0 1.1-.133 2.158-.4 3.175s-.65 1.975-1.15 2.875c-.5.9-1.108 1.708-1.825 2.425-.717.717-1.525 1.325-2.425 1.825l8.15 13.2h-9.25l-7.15-11.45h-5.35V58h-8.2zm8.2-18.6h7.5c.967 0 1.8-.458 2.5-1.375s1.05-2.092 1.05-3.525c0-1.467-.4-2.633-1.2-3.5-.8-.867-1.667-1.3-2.6-1.3h-7.25v9.7zm23.75.55c0-2.133.383-4.258 1.15-6.375.767-2.117 1.883-4.008 3.35-5.675 1.467-1.667 3.258-3.017 5.375-4.05s4.525-1.55 7.225-1.55c3.167 0 5.917.717 8.25 2.15 2.333 1.433 4.067 3.3 5.2 5.6l-6.3 4.4c-.367-.933-.833-1.708-1.4-2.325-.567-.617-1.183-1.117-1.85-1.5s-1.358-.65-2.075-.8c-.717-.15-1.392-.225-2.025-.225-1.467 0-2.733.317-3.8.95-1.067.633-1.95 1.45-2.65 2.45-.7 1-1.225 2.133-1.575 3.4-.35 1.267-.525 2.55-.525 3.85 0 1.4.208 2.75.625 4.05.417 1.3 1 2.45 1.75 3.45s1.658 1.792 2.725 2.375c1.067.583 2.25.875 3.55.875.667 0 1.358-.092 2.075-.275.717-.183 1.408-.467 2.075-.85.667-.383 1.267-.883 1.8-1.5.533-.617.967-1.375 1.3-2.275l6.75 3.95c-.533 1.3-1.308 2.467-2.325 3.5-1.017 1.033-2.175 1.9-3.475 2.6-1.3.7-2.675 1.233-4.125 1.6-1.45.367-2.875.55-4.275.55-2.467 0-4.725-.525-6.775-1.575-2.05-1.05-3.817-2.442-5.3-4.175-1.483-1.733-2.642-3.7-3.475-5.9-.833-2.2-1.25-4.433-1.25-6.7zm65.75-17.45V58h-8.2V43.45h-14.15V58h-8.2V22.5h8.2v13.75h14.15V22.5h8.2z" fill="#fff"/></g></g></g></g></g></svg>
